client/src/styles/security.svg

<svg xmlns="http://www.w3.org/2000/svg" xml:space="preserve" style="fill-rule:evenodd;clip-rule:evenodd;stroke-linejoin:round;stroke-miterlimit:2" viewBox="0 0 500 500"><path d="M0 0h500v500H0z" style="fill:none"/><path d="M1715.83 223.75c79.17 0 143.75 64.583 143.75 143.75v1348.33c0 79.17-64.58 143.75-143.75 143.75H367.5c-79.167 0-143.75-64.58-143.75-143.75V367.5c0-79.167 64.583-143.75 143.75-143.75zm0-70.833H367.5c-118.75 0-214.583 96.25-214.583 214.583v1348.33c0 118.75 96.25 214.58 214.583 214.58h1348.33c118.75 0 214.58-96.25 214.58-214.58V367.5c0-118.75-95.83-214.583-214.58-214.583" style="fill:#566b8d;fill-rule:nonzero" transform="translate(.023 -.09)scale(.23992)"/><path d="M4210.56 790.604c17.36 0 31.44 16.43 31.44 36.698v172.429c0 20.269-14.08 36.699-31.44 36.699h-186.28c-17.36 0-31.44-16.43-31.44-36.699V827.302c0-20.268 14.08-36.698 31.44-36.698zm-113.83 147.571v57.533h45.73v-57.533c10.69-8.534 17.71-22.88 17.71-39.125 0-26.14-18.18-47.363-40.58-47.363s-40.58 21.223-40.58 47.363c0 16.245 7.02 30.591 17.72 39.125" style="fill:#566b8d" transform="matrix(.98867 0 0 .8471 -3820.78 -492.787)"/><path d="M4210.56 790.604c17.36 0 31.44 16.43 31.44 36.698v172.429c0 20.269-14.08 36.699-31.44 36.699h-186.28c-17.36 0-31.44-16.43-31.44-36.699V827.302c0-20.268 14.08-36.698 31.44-36.698zm0 19.74h-186.28c-8.02 0-14.53 7.592-14.53 16.958v172.429c0 9.369 6.51 16.959 14.53 16.959h186.28c8.02 0 14.53-7.59 14.53-16.959V827.302c0-9.366-6.51-16.958-14.53-16.958m-130.75 137.143c-10.92-12.215-17.71-29.408-17.71-48.437 0-37.035 25.76-67.103 57.49-67.103s57.5 30.068 57.5 67.103c0 19.029-6.8 36.223-17.72 48.437v48.221c0 10.902-7.57 19.742-16.91 19.742h-45.73c-9.35 0-16.92-8.84-16.92-19.742zm16.92-9.312v57.533h45.73v-57.533c10.69-8.534 17.71-22.88 17.71-39.125 0-26.14-18.18-47.363-40.58-47.363s-40.58 21.223-40.58 47.363c0 16.245 7.02 30.591 17.72 39.125" style="fill:#566b8d" transform="matrix(.98867 0 0 .8471 -3820.78 -492.787)"/><path d="m4188.87 818.437-139.97.001c-10.56 0-19.11-8.56-19.11-19.118 0-49.209 39.89-89.101 89.1-89.101s89.1 39.892 89.1 89.101c0 10.558-8.56 19.117-19.12 19.117m-126.51-20.375h113.05c-.67-37.375-18.99-55.282-56.52-55.282-37.54 0-55.86 17.906-56.53 55.282" style="fill:#566b8d" transform="translate(-3128.04 -468.012)scale(.82066)"/></svg>

<?xml version="1.0" encoding="UTF-8" standalone="no"?>
<!DOCTYPE svg PUBLIC "-//W3C//DTD SVG 1.1//EN" "http://www.w3.org/Graphics/SVG/1.1/DTD/svg11.dtd">
<svg width="100%" height="100%" viewBox="0 0 500 500" version="1.1" xmlns="http://www.w3.org/2000/svg" xmlns:xlink="http://www.w3.org/1999/xlink" xml:space="preserve" xmlns:serif="http://www.serif.com/" style="fill-rule:evenodd;clip-rule:evenodd;stroke-linejoin:round;stroke-miterlimit:2;">
    <g transform="matrix(1,0,0,1,-3868.89,-632.637)">
        <g id="security" transform="matrix(1,0,0,1,3868.89,632.637)">
            <rect x="0" y="0" width="500" height="500" style="fill:none;"/>
            <g>
                <g transform="matrix(0.239924,0,0,0.239924,0.0225514,-0.0898274)">
                    <path d="M1715.83,223.75C1795,223.75 1859.58,288.333 1859.58,367.5L1859.58,1715.83C1859.58,1795 1795,1859.58 1715.83,1859.58L367.5,1859.58C288.333,1859.58 223.75,1795 223.75,1715.83L223.75,367.5C223.75,288.333 288.333,223.75 367.5,223.75L1715.83,223.75M1715.83,152.917L367.5,152.917C248.75,152.917 152.917,249.167 152.917,367.5L152.917,1715.83C152.917,1834.58 249.167,1930.41 367.5,1930.41L1715.83,1930.41C1834.58,1930.41 1930.41,1834.16 1930.41,1715.83L1930.41,367.5C1930.41,248.75 1834.58,152.917 1715.83,152.917Z" style="fill:rgb(86,107,141);fill-rule:nonzero;"/>
                </g>
                <g transform="matrix(0.988674,0,0,0.847095,-3820.78,-492.787)">
                    <path d="M4210.56,790.604C4227.92,790.604 4242,807.034 4242,827.302L4242,999.731C4242,1020 4227.92,1036.43 4210.56,1036.43L4024.28,1036.43C4006.92,1036.43 3992.84,1020 3992.84,999.731L3992.84,827.302C3992.84,807.034 4006.92,790.604 4024.28,790.604L4210.56,790.604ZM4096.73,938.175L4096.73,995.708L4142.46,995.708L4142.46,938.175C4153.15,929.641 4160.17,915.295 4160.17,899.05C4160.17,872.91 4141.99,851.687 4119.59,851.687C4097.19,851.687 4079.01,872.91 4079.01,899.05C4079.01,915.295 4086.03,929.641 4096.73,938.175Z" style="fill:rgb(86,107,141);"/>
                    <path d="M4210.56,790.604C4227.92,790.604 4242,807.034 4242,827.302L4242,999.731C4242,1020 4227.92,1036.43 4210.56,1036.43L4024.28,1036.43C4006.92,1036.43 3992.84,1020 3992.84,999.731L3992.84,827.302C3992.84,807.034 4006.92,790.604 4024.28,790.604L4210.56,790.604ZM4210.56,810.344L4024.28,810.344C4016.26,810.344 4009.75,817.936 4009.75,827.302L4009.75,999.731C4009.75,1009.1 4016.26,1016.69 4024.28,1016.69L4210.56,1016.69C4218.58,1016.69 4225.09,1009.1 4225.09,999.731L4225.09,827.302C4225.09,817.936 4218.58,810.344 4210.56,810.344ZM4079.81,947.487C4068.89,935.272 4062.1,918.079 4062.1,899.05C4062.1,862.015 4087.86,831.947 4119.59,831.947C4151.32,831.947 4177.09,862.015 4177.09,899.05C4177.09,918.079 4170.29,935.273 4159.37,947.487L4159.37,995.708C4159.37,1006.61 4151.8,1015.45 4142.46,1015.45L4096.73,1015.45C4087.38,1015.45 4079.81,1006.61 4079.81,995.708L4079.81,947.487ZM4096.73,938.175L4096.73,995.708L4142.46,995.708L4142.46,938.175C4153.15,929.641 4160.17,915.295 4160.17,899.05C4160.17,872.91 4141.99,851.687 4119.59,851.687C4097.19,851.687 4079.01,872.91 4079.01,899.05C4079.01,915.295 4086.03,929.641 4096.73,938.175Z" style="fill:rgb(86,107,141);"/>
                </g>
                <g transform="matrix(0.820655,0,0,0.820655,-3128.04,-468.012)">
                    <path d="M4188.87,818.437L4048.9,818.438C4038.34,818.438 4029.79,809.878 4029.79,799.32C4029.79,750.111 4069.68,710.219 4118.89,710.219C4168.1,710.219 4207.99,750.111 4207.99,799.32C4207.99,809.878 4199.43,818.437 4188.87,818.437ZM4062.36,798.062L4175.41,798.062C4174.74,760.687 4156.42,742.78 4118.89,742.78C4081.35,742.78 4063.03,760.686 4062.36,798.062Z" style="fill:rgb(86,107,141);"/>
                </g>
            </g>
        </g>
    </g>
</svg>
